pix_core/e/insert_col_after.svg

<svg fill="none" preserveAspectRatio="xMinYMid meet" viewBox="0 0 18 18" xmlns="http://www.w3.org/2000/svg"><g fill="#fff"><path d="m14.9992 3.80121c0-1.59031-1.2892-2.879518-2.8795-2.879518h-8.31806c-1.59032 0-2.879521 1.289208-2.879521 2.879518v10.39759c0 1.5903 1.289201 2.8795 2.879521 2.8795h8.31806c1.5903 0 2.8795-1.2892 2.8795-2.8795v-.8h-1.6v.8c0 .7067-.5728 1.2795-1.2795 1.2795h-3.61973v-12.95661h3.61973c.7067 0 1.2795.57286 1.2795 1.27952v.8h1.6z"/><path d="m14.1989 6.12048c-.4418 0-.8.35818-.8.8v1.27953h-1.2796c-.4418 0-.8.35817-.8.8s.3582.8.8.8h1.2796v1.27949c0 .4419.3582.8.8.8s.8-.3581.8-.8v-1.27949h1.2795c.4418 0 .8-.35817.8-.8s-.3582-.8-.8-.8h-1.2795v-1.27953c0-.44182-.3582-.8-.8-.8z"/></g></svg>

<svg viewBox="0 0 18 18" fill="none" xmlns="http://www.w3.org/2000/svg" preserveAspectRatio="xMinYMid meet">
<path fill="#fff" d="M14.9992 3.80121C14.9992 2.2109 13.71 0.921692 12.1197 0.921692H3.80164C2.21132 0.921692 0.922119 2.2109 0.922119 3.80121V14.1988C0.922119 15.7891 2.21132 17.0783 3.80164 17.0783H12.1197C13.71 17.0783 14.9992 15.7891 14.9992 14.1988V13.3988H13.3992V14.1988C13.3992 14.9055 12.8264 15.4783 12.1197 15.4783H8.49997V2.52169H12.1197C12.8264 2.52169 13.3992 3.09455 13.3992 3.80121V4.60121H14.9992V3.80121Z" />
<path fill="#fff" d="M14.1989 6.12048C13.7571 6.12048 13.3989 6.47866 13.3989 6.92048V8.20001H12.1193C11.6775 8.20001 11.3193 8.55818 11.3193 9.00001C11.3193 9.44184 11.6775 9.80001 12.1193 9.80001H13.3989V11.0795C13.3989 11.5214 13.7571 11.8795 14.1989 11.8795C14.6407 11.8795 14.9989 11.5214 14.9989 11.0795V9.80001H16.2784C16.7202 9.80001 17.0784 9.44184 17.0784 9.00001C17.0784 8.55818 16.7202 8.20001 16.2784 8.20001H14.9989V6.92048C14.9989 6.47866 14.6407 6.12048 14.1989 6.12048Z" />
</svg>
